public/assets/images/lex_tips/proteccion.svg

<svg width="1377" height="209" viewBox="0 0 1377 209" fill="none" xmlns="http://www.w3.org/2000/svg">
<path d="M50.9316 48.9492C71.1986 48.9492 85.987 53.3177 95.2969 62.0547C104.607 70.7201 109.262 82.6797 109.262 97.9336C109.262 104.809 108.223 111.397 106.146 117.699C104.07 123.93 100.668 129.48 95.9414 134.35C91.2865 139.219 85.056 143.087 77.25 145.951C69.444 148.744 59.8118 150.141 48.3535 150.141H34.0664V206H0.765625V48.9492H50.9316ZM49.2129 76.2344H34.0664V122.855H45.0234C51.2539 122.855 56.6608 122.032 61.2441 120.385C65.8275 118.738 69.3724 116.16 71.8789 112.65C74.3854 109.141 75.6387 104.63 75.6387 99.1152C75.6387 91.3809 73.4902 85.6517 69.1934 81.9277C64.8965 78.1322 58.2363 76.2344 49.2129 76.2344ZM184.512 48.9492C198.763 48.9492 210.508 50.668 219.746 54.1055C229.056 57.543 235.967 62.735 240.479 69.6816C244.99 76.6283 247.246 85.401 247.246 96C247.246 103.161 245.886 109.428 243.164 114.799C240.443 120.17 236.862 124.717 232.422 128.441C227.982 132.165 223.184 135.209 218.027 137.572L264.219 206H227.266L189.776 145.736H172.051V206H138.75V48.9492H184.512ZM182.149 76.2344H172.051V118.666H182.793C193.822 118.666 201.699 116.84 206.426 113.188C211.224 109.464 213.623 104.021 213.623 96.8594C213.623 89.4115 211.045 84.112 205.889 80.9609C200.804 77.8099 192.891 76.2344 182.149 76.2344ZM426.373 127.26C426.373 139.363 424.869 150.391 421.862 160.346C418.854 170.229 414.27 178.751 408.112 185.912C402.024 193.074 394.29 198.588 384.909 202.455C375.527 206.251 364.427 208.148 351.608 208.148C338.789 208.148 327.688 206.251 318.307 202.455C308.925 198.588 301.155 193.074 294.996 185.912C288.909 178.751 284.362 170.193 281.354 160.238C278.346 150.284 276.842 139.219 276.842 127.045C276.842 110.788 279.492 96.6445 284.791 84.6133C290.162 72.5104 298.398 63.1289 309.498 56.4688C320.599 49.8086 334.707 46.4785 351.823 46.4785C368.867 46.4785 382.867 49.8086 393.825 56.4688C404.853 63.1289 413.017 72.5104 418.317 84.6133C423.688 96.7161 426.373 110.932 426.373 127.26ZM311.754 127.26C311.754 138.217 313.115 147.67 315.836 155.619C318.629 163.497 322.962 169.584 328.834 173.881C334.707 178.106 342.298 180.219 351.608 180.219C361.061 180.219 368.724 178.106 374.596 173.881C380.468 169.584 384.729 163.497 387.379 155.619C390.101 147.67 391.461 138.217 391.461 127.26C391.461 110.788 388.382 97.8262 382.223 88.373C376.064 78.9199 365.931 74.1934 351.823 74.1934C342.441 74.1934 334.778 76.3418 328.834 80.6387C322.962 84.8639 318.629 90.9512 315.836 98.9004C313.115 106.778 311.754 116.231 311.754 127.26ZM519.348 206H486.047V76.6641H443.401V48.9492H561.995V76.6641H519.348V206ZM676.454 206H586.005V48.9492H676.454V76.2344H619.305V110.717H672.479V138.002H619.305V178.5H676.454V206ZM775.874 74.4082C769.5 74.4082 763.843 75.6615 758.901 78.168C754.031 80.6029 749.914 84.1478 746.548 88.8027C743.253 93.4577 740.747 99.0794 739.028 105.668C737.309 112.257 736.45 119.669 736.45 127.904C736.45 139.005 737.811 148.493 740.532 156.371C743.325 164.177 747.622 170.157 753.423 174.311C759.223 178.393 766.707 180.434 775.874 180.434C782.248 180.434 788.621 179.717 794.995 178.285C801.44 176.853 808.423 174.812 815.942 172.162V200.092C808.996 202.956 802.156 204.997 795.425 206.215C788.693 207.504 781.138 208.148 772.759 208.148C756.574 208.148 743.253 204.818 732.798 198.158C722.414 191.426 714.715 182.045 709.702 170.014C704.689 157.911 702.182 143.803 702.182 127.689C702.182 115.801 703.794 104.916 707.016 95.0332C710.239 85.1504 714.966 76.5924 721.196 69.3594C727.427 62.1263 735.125 56.5404 744.292 52.6016C753.458 48.6628 763.986 46.6934 775.874 46.6934C783.68 46.6934 791.486 47.696 799.292 49.7012C807.169 51.6348 814.689 54.3203 821.85 57.7578L811.108 84.8281C805.236 82.0352 799.328 79.6003 793.384 77.5234C787.44 75.4466 781.603 74.4082 775.874 74.4082ZM916.007 74.4082C909.633 74.4082 903.976 75.6615 899.034 78.168C894.164 80.6029 890.046 84.1478 886.681 88.8027C883.386 93.4577 880.88 99.0794 879.161 105.668C877.442 112.257 876.583 119.669 876.583 127.904C876.583 139.005 877.944 148.493 880.665 156.371C883.458 164.177 887.755 170.157 893.556 174.311C899.356 178.393 906.84 180.434 916.007 180.434C922.38 180.434 928.754 179.717 935.128 178.285C941.573 176.853 948.556 174.812 956.075 172.162V200.092C949.129 202.956 942.289 204.997 935.558 206.215C928.826 207.504 921.27 208.148 912.892 208.148C896.707 208.148 883.386 204.818 872.931 198.158C862.546 191.426 854.848 182.045 849.835 170.014C844.822 157.911 842.315 143.803 842.315 127.689C842.315 115.801 843.927 104.916 847.149 95.0332C850.372 85.1504 855.099 76.5924 861.329 69.3594C867.56 62.1263 875.258 56.5404 884.425 52.6016C893.591 48.6628 904.119 46.6934 916.007 46.6934C923.813 46.6934 931.619 47.696 939.425 49.7012C947.302 51.6348 954.822 54.3203 961.983 57.7578L951.241 84.8281C945.369 82.0352 939.461 79.6003 933.517 77.5234C927.573 75.4466 921.736 74.4082 916.007 74.4082ZM989.431 206V48.9492H1022.73V206H989.431ZM1204.65 127.26C1204.65 139.363 1203.15 150.391 1200.14 160.346C1197.13 170.229 1192.55 178.751 1186.39 185.912C1180.3 193.074 1172.57 198.588 1163.19 202.455C1153.81 206.251 1142.7 208.148 1129.89 208.148C1117.07 208.148 1105.97 206.251 1096.59 202.455C1087.2 198.588 1079.43 193.074 1073.27 185.912C1067.19 178.751 1062.64 170.193 1059.63 160.238C1056.62 150.284 1055.12 139.219 1055.12 127.045C1055.12 110.788 1057.77 96.6445 1063.07 84.6133C1068.44 72.5104 1076.68 63.1289 1087.78 56.4688C1098.88 49.8086 1112.98 46.4785 1130.1 46.4785C1147.15 46.4785 1161.15 49.8086 1172.1 56.4688C1183.13 63.1289 1191.3 72.5104 1196.59 84.6133C1201.97 96.7161 1204.65 110.932 1204.65 127.26ZM1090.03 127.26C1090.03 138.217 1091.39 147.67 1094.11 155.619C1096.91 163.497 1101.24 169.584 1107.11 173.881C1112.98 178.106 1120.58 180.219 1129.89 180.219C1139.34 180.219 1147 178.106 1152.87 173.881C1158.75 169.584 1163.01 163.497 1165.66 155.619C1168.38 147.67 1169.74 138.217 1169.74 127.26C1169.74 110.788 1166.66 97.8262 1160.5 88.373C1154.34 78.9199 1144.21 74.1934 1130.1 74.1934C1120.72 74.1934 1113.06 76.3418 1107.11 80.6387C1101.24 84.8639 1096.91 90.9512 1094.11 98.9004C1091.39 106.778 1090.03 116.231 1090.03 127.26ZM1172.1 0.501953V2.75781C1170.03 4.76302 1167.3 7.23372 1163.94 10.1699C1160.57 13.1061 1156.96 16.1855 1153.09 19.4082C1149.22 22.5592 1145.43 25.6029 1141.7 28.5391C1137.98 31.4036 1134.72 33.8027 1131.93 35.7363H1110.12V32.8359C1112.48 30.1146 1115.2 26.8919 1118.28 23.168C1121.44 19.3724 1124.55 15.4694 1127.63 11.459C1130.71 7.44857 1133.29 3.79622 1135.36 0.501953H1172.1ZM1376.37 206H1334.04L1265.72 87.1914H1264.76C1265.04 92.1328 1265.29 97.11 1265.51 102.123C1265.72 107.136 1265.94 112.149 1266.15 117.162C1266.37 122.104 1266.58 127.081 1266.8 132.094V206H1237.04V48.9492H1279.04L1347.26 166.576H1348.01C1347.86 161.706 1347.69 156.872 1347.47 152.074C1347.26 147.276 1347.04 142.478 1346.83 137.68C1346.68 132.882 1346.54 128.083 1346.4 123.285V48.9492H1376.37V206Z" fill="#CB8B3E" fill-opacity="0.15"/>
</svg>

<svg xmlns="http://www.w3.org/2000/svg" fill="none" viewBox="0 0 1377 209"><path fill="#cb8b3e" fill-opacity=".15" d="M50.932 48.95q30.4 0 44.365 13.105 13.965 12.998 13.965 35.879 0 10.312-3.116 19.765-3.114 9.346-10.205 16.651-6.981 7.304-18.691 11.601-11.709 4.19-28.897 4.19H34.067V206H.766V48.95zm-1.72 27.284H34.067v46.621h10.957q9.346 0 16.221-2.47t10.635-7.735q3.76-5.263 3.76-13.535 0-11.601-6.446-17.187-6.445-5.694-19.98-5.694m135.3-27.285q21.377 0 35.234 5.157 13.965 5.155 20.733 15.576 6.767 10.42 6.767 26.318 0 10.742-4.082 18.799t-10.742 13.642q-6.66 5.586-14.395 9.131L264.219 206h-36.953l-37.49-60.264h-17.725V206H138.75V48.95zm-2.363 27.285h-10.098v42.432h10.742q16.543 0 23.633-5.478 7.197-5.586 7.197-16.329 0-11.171-7.734-15.898-7.627-4.727-23.74-4.727m244.224 51.026q0 18.154-4.511 33.086-4.512 14.825-13.75 25.566-9.132 10.743-23.203 16.543-14.073 5.694-33.301 5.693-19.229 0-33.301-5.693-14.073-5.8-23.311-16.543-9.13-10.742-13.642-25.674t-4.512-33.193q0-24.385 7.949-42.432 8.057-18.154 24.707-28.144 16.651-9.99 42.325-9.99 25.565 0 42.002 9.99 16.542 9.99 24.492 28.144 8.056 18.155 8.056 42.647m-114.619 0q0 16.436 4.082 28.359 4.19 11.817 12.998 18.262 8.81 6.338 22.774 6.338 14.18 0 22.988-6.338 8.808-6.445 12.783-18.262 4.082-11.924 4.082-28.359 0-24.708-9.238-38.887t-30.4-14.18q-14.073 0-22.989 6.446-8.808 6.338-12.998 18.261-4.082 11.817-4.082 28.36M519.348 206h-33.301V76.664h-42.646V48.95h118.594v27.715h-42.647zm157.106 0h-90.449V48.95h90.449v27.284h-57.149v34.483h53.174v27.285h-53.174V178.5h57.149zm99.42-131.592q-9.56 0-16.973 3.76-7.304 3.653-12.353 10.635-4.942 6.982-7.52 16.865-2.578 9.884-2.578 22.236 0 16.65 4.082 28.467 4.19 11.709 12.891 17.94 8.7 6.123 22.451 6.123 9.56 0 19.121-2.149 9.668-2.148 20.947-6.123v27.93q-10.42 4.296-20.517 6.123-10.098 1.933-22.666 1.933-24.278 0-39.961-9.99-15.576-10.098-23.096-28.144-7.52-18.154-7.52-42.325 0-17.832 4.834-32.656 4.835-14.824 14.18-25.674 9.346-10.85 23.096-16.757 13.75-5.91 31.582-5.909 11.709 0 23.418 3.008 11.816 2.901 22.558 8.057l-10.742 27.07a178 178 0 0 0-17.724-7.305q-8.916-3.114-17.51-3.115m140.133 0q-9.56 0-16.973 3.76-7.305 3.653-12.353 10.635-4.942 6.982-7.52 16.865-2.578 9.884-2.578 22.236 0 16.65 4.082 28.467 4.19 11.709 12.891 17.94 8.7 6.123 22.451 6.123 9.56 0 19.121-2.149 9.668-2.148 20.947-6.123v27.93q-10.42 4.296-20.517 6.123-10.098 1.933-22.666 1.933-24.278 0-39.961-9.99-15.577-10.098-23.096-28.144-7.52-18.154-7.52-42.325 0-17.832 4.834-32.656 4.835-14.824 14.18-25.674 9.346-10.85 23.096-16.757 13.75-5.91 31.582-5.909 11.709 0 23.418 3.008 11.816 2.901 22.558 8.057l-10.742 27.07a178 178 0 0 0-17.724-7.305q-8.916-3.114-17.51-3.115M989.431 206V48.95h33.299V206zm215.219-78.74c0 12.103-1.5 23.131-4.51 33.086-3.01 9.883-7.59 18.405-13.75 25.566-6.09 7.162-13.82 12.676-23.2 16.543-9.38 3.796-20.49 5.693-33.3 5.693q-19.23 0-33.3-5.693c-9.39-3.867-17.16-9.381-23.32-16.543-6.08-7.161-10.63-15.719-13.64-25.674s-4.51-21.019-4.51-33.193q0-24.385 7.95-42.432c5.37-12.103 13.61-21.484 24.71-28.144s25.2-9.99 42.32-9.99q25.575 0 42 9.99c11.03 6.66 19.2 16.041 24.49 28.144 5.38 12.103 8.06 26.319 8.06 42.647m-114.62 0q0 16.436 4.08 28.359c2.8 7.878 7.13 13.965 13 18.262 5.87 4.225 13.47 6.338 22.78 6.338q14.175 0 22.98-6.338c5.88-4.297 10.14-10.384 12.79-18.262q4.08-11.924 4.08-28.359 0-24.708-9.24-38.887c-6.16-9.453-16.29-14.18-30.4-14.18-9.38 0-17.04 2.149-22.99 6.446-5.87 4.225-10.2 10.312-13 18.261q-4.08 11.817-4.08 28.36M1172.1.502v2.256c-2.07 2.005-4.8 4.476-8.16 7.412a638 638 0 0 1-10.85 9.238 888 888 0 0 1-11.39 9.131c-3.72 2.865-6.98 5.264-9.77 7.197h-21.81v-2.9q3.54-4.082 8.16-9.668a381 381 0 0 0 9.35-11.709c3.08-4.01 5.66-7.663 7.73-10.957zM1376.37 206h-42.33l-68.32-118.809h-.96q.42 7.413.75 14.932c.21 5.013.43 10.026.64 15.039.22 4.942.43 9.919.65 14.932V206h-29.76V48.95h42l68.22 117.626h.75c-.15-4.87-.32-9.704-.54-14.502-.21-4.798-.43-9.596-.64-14.394-.15-4.798-.29-9.597-.43-14.395V48.949h29.97z"/></svg>
